svg/icloud.svg

<svg xmlns:dc="http://purl.org/dc/elements/1.1/" xmlns:cc="http://creativecommons.org/ns#" xmlns:rdf="http://www.w3.org/1999/02/22-rdf-syntax-ns#" xmlns:svg="http://www.w3.org/2000/svg" xmlns="http://www.w3.org/2000/svg" xmlns:xlink="http://www.w3.org/1999/xlink" xmlns:sodipodi="http://sodipodi.sourceforge.net/DTD/sodipodi-0.dtd" xmlns:inkscape="http://www.inkscape.org/namespaces/inkscape" version="1.1" id="svg2" sodipodi:version="0.32" inkscape:version="0.92.4 (5da689c313, 2019-01-14)" sodipodi:docname="CloudFlare logo.svg" viewBox="0.38 0.75 79.33 50.97">   <title id="title4296">iCloud logo</title>   <metadata id="metadata59">     <rdf:rdf>       <cc:work rdf:about="">         <dc:format>image/svg+xml</dc:format>         <dc:type rdf:resource="http://purl.org/dc/dcmitype/StillImage"/>         <dc:title>iCloud logo</dc:title>         <cc:license rdf:resource="http://scripts.sil.org/OFL"/>         <dc:date>6 mrz 2020</dc:date>         <dc:creator>           <cc:agent>             <dc:title>EEIM</dc:title>           </cc:agent>         </dc:creator>       </cc:work>       <cc:license rdf:about="http://scripts.sil.org/OFL">         <cc:permits rdf:resource="http://scripts.sil.org/pub/OFL/Reproduction"/>         <cc:permits rdf:resource="http://scripts.sil.org/pub/OFL/Distribution"/>         <cc:permits rdf:resource="http://scripts.sil.org/pub/OFL/Embedding"/>         <cc:permits rdf:resource="http://scripts.sil.org/pub/OFL/DerivativeWorks"/>         <cc:requires rdf:resource="http://scripts.sil.org/pub/OFL/Notice"/>         <cc:requires rdf:resource="http://scripts.sil.org/pub/OFL/Attribution"/>         <cc:requires rdf:resource="http://scripts.sil.org/pub/OFL/ShareAlike"/>         <cc:requires rdf:resource="http://scripts.sil.org/pub/OFL/DerivativeRenaming"/>         <cc:requires rdf:resource="http://scripts.sil.org/pub/OFL/BundlingWhenSelling"/>       </cc:license>     </rdf:rdf>   </metadata>   <defs id="defs57">     <pattern y="0" x="0" height="6" width="6" patternUnits="userSpaceOnUse" id="EMFhbasepattern"/>     <linearGradient inkscape:collect="always" xlink:href="#linearGradient1070" id="linearGradient1072" x1="-108.90347" y1="2124.834" x2="-1137.1982" y2="2110.6506" gradientUnits="userSpaceOnUse" gradientTransform="matrix(0.07740541,0,0,0.07740541,88.373952,-128.02586)"/>     <linearGradient inkscape:collect="always" id="linearGradient1070">       <stop style="stop-color:#3e82f4;stop-opacity:1" offset="0" id="stop1066"/>       <stop style="stop-color:#93dcf7;stop-opacity:1" offset="1" id="stop1068"/>     </linearGradient>   </defs>   <sodipodi:namedview inkscape:window-height="705" inkscape:window-width="1366" inkscape:pageshadow="2" inkscape:pageopacity="0" guidetolerance="1" gridtolerance="1" objecttolerance="1" borderopacity="1.0" bordercolor="#666666" pagecolor="#ffffff" id="base" inkscape:zoom="1" inkscape:cx="75.838607" inkscape:cy="36.711673" inkscape:window-x="-8" inkscape:window-y="-8" inkscape:current-layer="svg2" showgrid="false" showguides="false" inkscape:showpageshadow="false" units="px" inkscape:window-maximized="1"/>   <g id="#ffffffff" transform="translate(0,-1089)"/>   <g id="#2acbffff-4" transform="matrix(0.74035173,0,0,0.75447038,-840.95699,-775.15387)" style="fill:#00ff00"/>   <path style="opacity:1;fill:url(#linearGradient1072);fill-opacity:1;stroke:none;stroke-width:0;stroke-miterlimit:4;stroke-dasharray:none;stroke-opacity:1" d="M 45.864371,0.751258 A 21.518704,21.518704 0 0 0 27.127725,11.764594 11.804325,11.804325 0 0 0 21.976186,10.573131 11.804325,11.804325 0 0 0 10.35494,20.48888 16.255137,16.255137 0 0 0 0.37795502,35.481798 16.255137,16.255137 0 0 0 16.640956,51.721206 16.255137,16.255137 0 0 0 18.679799,51.57426 h 45.187983 a 15.130063,15.202083 0 0 0 0.712824,0.03447 15.130063,15.202083 0 0 0 0.679264,-0.03447 h 1.082164 V 51.49383 A 15.130063,15.202083 0 0 0 79.703385,36.406573 V 36.3774 A 15.130063,15.202083 0 0 0 67.386251,21.477308 21.518704,21.518704 0 0 0 45.864371,0.751258 Z" id="rect955" inkscape:connector-curvature="0"/> </svg>

<svg xmlns="http://www.w3.org/2000/svg" xmlns:xlink="http://www.w3.org/1999/xlink" viewBox="0.38 0.75 79.33 50.97"><defs><linearGradient xlink:href="#a" id="b" x1="-108.903" x2="-1137.198" y1="2124.834" y2="2110.651" gradientTransform="matrix(.0774 0 0 .0774 88.374 -128.026)" gradientUnits="userSpaceOnUse"/><linearGradient id="a"><stop offset="0" style="stop-color:#3e82f4;stop-opacity:1"/><stop offset="1" style="stop-color:#93dcf7;stop-opacity:1"/></linearGradient></defs><path d="M45.864.751a21.52 21.52 0 0 0-18.736 11.014 11.8 11.8 0 0 0-5.152-1.192 11.804 11.804 0 0 0-11.621 9.916A16.255 16.255 0 0 0 .378 35.482a16.255 16.255 0 0 0 16.263 16.24 16 16 0 0 0 2.039-.148h45.188a15.13 15.202 0 0 0 .713.035 15.13 15.202 0 0 0 .679-.035h1.082v-.08a15.13 15.202 0 0 0 13.361-15.087v-.03a15.13 15.202 0 0 0-12.317-14.9A21.52 21.52 0 0 0 45.864.751" style="opacity:1;fill:url(#b);fill-opacity:1;stroke:none;stroke-width:0;stroke-miterlimit:4;stroke-dasharray:none;stroke-opacity:1"/></svg>
